X: 58
T: Boże, który sług nigdy nie przepomnisz swoich,
C: Mikołaj Gomółka
%%abc-version 2.0
%%abcx-abcm2ps-target-version 5.9.1 (29 Sep 2008)
%%abc-creator hum2abc beta
%%abcx-conversion-date 2021/10/04 07:59:10
%%abc-edited-by Marta Lawrence
%%abcx-initial-encoding-date 2020-02-12
%%humdrum-veritas 3743972368
%%humdrum-veritas-data 4106363297
%%linebreak <none>
%%barnumbers 0
L: 1/4
M: C|
N: Derived from pl-wn--sd-xvi-qu-273--059_gomolka-mikolaj--boze-ktory-slug-nigdy-nie-przepomnisz-swoich.krn
%%staves [1 2 3 4]
V: 1
V: 2 clef=alto
V: 3 clef=tenor
V: 4 clef=bass
K: F
[V:1] G8 [|] 
[V:2] D8 [|] 
[V:3] =B,8 [|] 
[V:4] G,8 [|] 
[V:1] G4B6 [|] 
[V:2] _E4B,6 [|] 
[V:3] C4D6 [|] 
[V:4] C,4G,6 [|] 
[V:1] B2c4 [|] 
[V:2] G,2G,4 [|] 
[V:3] _E2E4 [|] 
[V:4] E,2C,4 [|] 
[V:1] A4A2B2 [|] 
[V:2] F,2F4F2 [|] 
[V:3] C4C2D2 [|] 
[V:4] F,,4F,,2B,,2 [|] 
[V:1] G4G2G2 [|] 
[V:2] =E2>D2CB,C2 [|] 
[V:3] C4G,2G,2 [|] 
[V:4] C,4C,2C,2 [|] 
[V:1] F4E4 [|] 
[V:2] C4C4 [|] 
[V:3] A,4G,4 [|] 
[V:4] F,,4C,4 [|] 
[V:1] G4c4 [|] 
[V:2] E2>F2_G2=G2 [|] 
[V:3] C2>D2=E2E2 [|] 
[V:4] C,4C,D,E,F, [|] 
[V:1] =B2c2A2_B2 [|] 
[V:2] G2G2F2F2 [|] 
[V:3] D2C2C2D2 [|] 
[V:4] G,2C,2F,2B,,2 [|] 
[V:1] G2^F4F2 [|] 
[V:2] _E2D4D2 [|] 
[V:3] CB,A,4A,2 [|] 
[V:4] C,2D,4D,2 [|] 
[V:1] G2>A2B2B2 [|] 
[V:2] D4G2G2 [|] 
[V:3] B,2>C2D2D2 [|] 
[V:4] G,,4G,,A,,B,,C, [|] 
[V:1] A2G2e4 [|] 
[V:2] ^F2G2G4 [|] 
[V:3] D2B,2C4 [|] 
[V:4] D,2_E,2C,D,=E,F, [|] 
[V:1] d2>c2B2=B2 [|] 
[V:2] G2G2G2G2 [|] 
[V:3] =B,2D2D2D2 [|] 
[V:4] G,2G,2G,,2G,,2 [|] 
[V:1] c2>B2A2G2 [|] 
[V:2] G2>=F2F=EDC [|] 
[V:3] E2>D2CB,A,G, [|] 
[V:4] C,2C,2D,2E,2 [|] 
[V:1] G2=F2G2G3 [|] 
[V:2] D4D2D2 [|] 
[V:3] A,4G,2B,2 [|] 
[V:4] D,4G,,2G,2 [|] 
[V:1] c2A2B2G2 [|] 
[V:2] G2F2F2_E2 [|] 
[V:3] E2C2D2B,2 [|] 
[V:4] C,2F,2B,,2E,2 [|] 
[V:1] A2FB4 [|] 
[V:2] _E2D2D4 [|] 
[V:3] C2A,2B,4 [|] 
[V:4] C,2D,2G,,4 [|] 
[V:1] A6F2 [|] 
[V:2] F6D2 [|] 
[V:3] C6B,2 [|] 
[V:4] F,,6B,,2 [|] 
[V:1] E2>F2G4 [|] 
[V:2] C4B,2G,2 [|] 
[V:3] G,2G,2>A,2=B,2 [|] 
[V:4] C,2>D,2E,F,G,2 [|] 
[V:1] G32x4 |]  
[V:2] =E4D32 |]  
[V:3] C4=B,32 |]  
[V:4] C,4G,,32 |]  


